www/assets/icons/signal_cellular_alt.svg

<svg width="24" height="24" viewBox="0 0 24 24" xmlns="http://www.w3.org/2000/svg" fill='currentColor'><path d="M16.5 4H19.5V20H16.5V4ZM4.5 14H7.5V20H4.5V14ZM10.5 9H13.5V20H10.5V9Z"/></svg>

<svg xmlns="http://www.w3.org/2000/svg" width="24" height="24" viewBox="0 0 24 24" fill='currentColor'><path d="M16.5 4h3v16h-3zm-12 10h3v6h-3zm6-5h3v11h-3z"/></svg>
